X: 1
T: Nordsettervalsen   [Em]
O: Hans Brimi
R: waltz
D: Hans Brimis kvartett, "P\aa Ball i Lom"
M: 3/4
L: 1/8
K: Edor
|: EG \
| "Em"B2 =cB AF | ~G2 FG E2 | "B7"B2 ^de fa | "Em"{f}g2 fg e2 \
| gb a^c' b2 | ba fa {f}g2 | "B7"~g2 fe ^df | "Em"e4 :|
|: gb \
| "B7"b2 a2  b2 | "Em"g3 fef | "B7"g2 fe ^df | "Em"e^d ef ga \
| "B7"b2 a2  b2 | "Em"g3 fef | "B7"g2 fe ^df | "Em"e4 :|
|: gb \
| "B7"b2 af af | "Em"ge ge ge | "B7"e^d Bd fd | "Em"e2 ge gb \
| "B7"b2 af af | "Em"ge ge ge | "B7"e^d Bd fd | "Em"e4 :|
